assets/components_previews/typography/light/markdown.svg

<svg xmlns="http://www.w3.org/2000/svg" width="320" height="232" fill="none" viewBox="0 0 320 232"><path fill="#AA99EC" fill-rule="evenodd" d="M165.118 103.222a1 1 0 0 0 .104 1.411l1.84 1.585c.366.316.587.508.728.657-.141.149-.362.341-.728.657l-1.84 1.586a1 1 0 0 0 1.306 1.515l1.84-1.586.043-.038c.349-.3.684-.589.923-.859.262-.296.541-.713.541-1.275s-.279-.979-.541-1.275c-.239-.27-.574-.558-.923-.859l-.043-.038-1.84-1.585a1 1 0 0 0-1.41.104m-2.486 0a1 1 0 0 1-.104 1.411l-1.84 1.585c-.366.316-.587.508-.728.657.141.149.362.341.728.657l1.84 1.586a1 1 0 0 1-1.306 1.515l-1.84-1.586-.043-.038c-.349-.3-.684-.589-.923-.859-.262-.296-.541-.713-.541-1.275s.279-.979.541-1.275c.239-.27.574-.558.923-.859l.043-.038 1.84-1.585a1 1 0 0 1 1.41.104" clip-rule="evenodd"/><path fill="#AA99EC" d="M154.812 110.522c.982.103.545.103 2.086.103a.978.978 0 0 0 0-1.955c-1.609 0-1.015-.001-1.885-.092-.854-.089-1.337-.256-1.695-.509a3 3 0 0 1-.632-.596c-.255-.323-.425-.755-.517-1.542-.095-.81-.097-1.867-.097-3.391v-2.9c0-.267 0-.906.281-1.378.173-.29.394-.534.622-.658.366-.2.787-.312 1.233-.312l1.041.036c.38.008.823-.004 1.251-.119a2.42 2.42 0 0 0 1.709-1.709c.115-.428.127-.871.119-1.251l-.036-1.04c0-.469.124-.876.341-1.254.127-.22.348-.422.653-.6.462-.269 1.015-.271 1.353-.273l.993-.002c1.834 0 2.501.014 3.005.19.872.308 1.538.95 1.848 1.735.078.197.133.455.162.903.03.457.031 1.04.031 1.88v5.113a.974.974 0 1 0 1.947 0v-5.146c0-.8 0-1.447-.035-1.975-.036-.545-.111-1.03-.294-1.495-.529-1.339-1.638-2.373-3.014-2.858-.859-.303-2.331-.303-3.886-.302-2.84 0-4.526 0-5.909.487-2.22.782-3.994 2.445-4.837 4.58-.281.713-.406 1.477-.466 2.394-.059.9-.059 2.013-.059 3.432v2.583c0 1.448 0 2.621.11 3.558.114.974.357 1.812.927 2.531.295.372.644.701 1.034.977.745.527 1.606.75 2.616.855" opacity=".4"/><path fill="#AA99EC" d="M111.986 138v-8.8h1.952v1.776h.544l-.592.48q0-1.12.656-1.76.672-.656 1.824-.656 1.344 0 2.096.864.753.864.752 2.416v.832h-2v-.736q0-.816-.416-1.232t-1.184-.416q-.784 0-1.216.48-.416.48-.416 1.36V138zm7.978 0 3.072-4.544-2.864-4.256h2.256l1.36 2.16q.128.192.224.432.112.24.176.384.064-.144.176-.384t.224-.432l1.36-2.16h2.272l-2.864 4.256 3.056 4.544h-2.272l-1.52-2.416a5 5 0 0 1-.24-.448 7 7 0 0 0-.192-.384l-.176.384q-.112.24-.24.448L122.236 138zm13.178.16q-.672 0-1.088-.4-.4-.416-.4-1.072 0-.672.4-1.072.416-.416 1.088-.416t1.072.416q.416.4.416 1.072 0 .656-.416 1.072-.4.4-1.072.4m4.906-.16v-8.8h1.664v1.28h.336l-.304.224q0-.736.4-1.2t1.072-.464q.72 0 1.168.56.464.544.464 1.424l-.384-.576h.544l-.256.256q.015-.768.432-1.216.415-.448 1.104-.448.816 0 1.328.624.528.624.528 1.632V138h-1.76v-6.56q0-.432-.208-.672-.192-.256-.56-.256a.64.64 0 0 0-.544.256q-.176.24-.176.672V138h-1.6v-6.56q0-.432-.192-.672-.177-.256-.528-.256-.369 0-.576.256-.192.24-.192.672V138zm12.025.16q-1.344 0-2.128-.752-.768-.768-.768-2 0-.864.4-1.488a2.6 2.6 0 0 1 1.136-.96q.752-.352 1.76-.352h2.144v-.624q0-.64-.4-.976-.384-.352-1.152-.352-.704 0-1.136.272a.95.95 0 0 0-.448.768h-1.92q.065-1.2.992-1.92.945-.736 2.528-.736 1.68 0 2.608.784t.928 2.208V138h-1.952v-1.68h-.32l.352-.288q0 .656-.32 1.136-.32.464-.912.736-.591.256-1.392.256m.64-1.632q.88 0 1.392-.432.513-.432.512-1.152v-1.04h-2.048q-.656 0-1.04.368-.384.352-.384.944 0 .593.4.96.417.352 1.168.352m6.042 1.472v-8.8h1.952v1.776h.544l-.592.48q0-1.12.656-1.76.672-.656 1.824-.656 1.344 0 2.096.864t.752 2.416v.832h-2v-.736q0-.816-.416-1.232t-1.184-.416q-.784 0-1.216.48-.416.48-.416 1.36V138zm8.714 0v-11.68h2v6.336h1.408l2.096-3.456h2.224l-2.608 4.256 2.704 4.544h-2.272l-2.144-3.648h-1.408V138zm11.642.16q-1.28 0-2.08-.912-.784-.912-.784-2.448v-2.384q0-1.552.784-2.464.8-.912 2.08-.912 1.183 0 1.872.752.687.737.688 2.016l-.592-.832h.464l-.064-2.192v-2.464h2V138h-1.952v-1.776h-.448l.576-.832q0 1.28-.688 2.032-.672.736-1.856.736m.752-1.728q.767 0 1.184-.464.432-.464.432-1.312v-2.112q0-.848-.432-1.312-.417-.464-1.184-.464-.768 0-1.2.416-.416.416-.416 1.28v2.272q0 .848.416 1.28.432.416 1.2.416m9.001 1.712q-1.12 0-1.952-.432a3.07 3.07 0 0 1-1.28-1.216q-.447-.8-.448-1.872v-2.048q0-1.087.448-1.872a3.07 3.07 0 0 1 1.28-1.216q.833-.432 1.952-.432 1.136 0 1.952.432.833.432 1.28 1.216t.448 1.872v2.048q0 1.073-.448 1.872a3.06 3.06 0 0 1-1.28 1.216q-.816.432-1.952.432m0-1.744q.8 0 1.232-.432.448-.448.448-1.28v-2.176q0-.848-.448-1.28-.432-.432-1.232-.432-.783 0-1.232.432-.447.432-.448 1.28v2.176q0 .832.448 1.28.449.432 1.232.432m5.786 1.6-1.376-8.8h1.584l.784 5.392q.064.496.112 1.072l.08.96q.032-.384.064-.96.048-.576.144-1.072l.96-5.392h1.664l.928 5.392q.096.496.144 1.088.065.576.096.96.032-.384.064-.96a14 14 0 0 1 .128-1.088l.8-5.392h1.536l-1.408 8.8h-2.064l-.832-5.424-.144-1.04a52 52 0 0 1-.096-.944q0 .24-.048.592l-.096.72q-.048.368-.096.672l-.864 5.424zm8.554 0v-8.8h1.952v1.68h.544l-.592.464q.017-1.056.672-1.68.656-.624 1.744-.624 1.296 0 2.064.864.784.864.784 2.32V138h-2v-5.536q0-.816-.416-1.248-.415-.448-1.152-.448-.752 0-1.184.448-.416.448-.416 1.28V138z"/></svg>

<svg width="320" height="232" viewBox="0 0 320 232" fill="none" xmlns="http://www.w3.org/2000/svg">
<path fill-rule="evenodd" clip-rule="evenodd" d="M165.118 103.222C164.757 103.641 164.804 104.272 165.222 104.633L167.062 106.218C167.428 106.534 167.649 106.726 167.79 106.875C167.649 107.024 167.428 107.216 167.062 107.532L165.222 109.118C164.804 109.478 164.757 110.11 165.118 110.528C165.478 110.946 166.11 110.993 166.528 110.633L168.368 109.047C168.382 109.034 168.397 109.022 168.411 109.009C168.76 108.709 169.095 108.42 169.334 108.15C169.596 107.854 169.875 107.437 169.875 106.875C169.875 106.313 169.596 105.896 169.334 105.6C169.095 105.33 168.76 105.042 168.411 104.741C168.397 104.728 168.382 104.716 168.368 104.703L166.528 103.118C166.11 102.757 165.478 102.804 165.118 103.222Z" fill="#AA99EC"/>
<path fill-rule="evenodd" clip-rule="evenodd" d="M162.632 103.222C162.993 103.641 162.946 104.272 162.528 104.633L160.688 106.218C160.322 106.534 160.101 106.726 159.96 106.875C160.101 107.024 160.322 107.216 160.688 107.532L162.528 109.118C162.946 109.478 162.993 110.11 162.632 110.528C162.272 110.946 161.641 110.993 161.222 110.633L159.382 109.047C159.368 109.034 159.353 109.022 159.339 109.009C158.99 108.709 158.655 108.42 158.416 108.15C158.154 107.854 157.875 107.437 157.875 106.875C157.875 106.313 158.154 105.896 158.416 105.6C158.655 105.33 158.99 105.042 159.339 104.741C159.353 104.728 159.368 104.716 159.382 104.703L161.222 103.118C161.641 102.757 162.272 102.804 162.632 103.222Z" fill="#AA99EC"/>
<path opacity="0.4" d="M154.812 110.522C155.794 110.625 155.357 110.625 156.898 110.625C157.437 110.625 157.875 110.187 157.875 109.648C157.875 109.108 157.437 108.67 156.898 108.67C155.289 108.67 155.883 108.669 155.013 108.578C154.159 108.489 153.676 108.322 153.318 108.069C153.076 107.898 152.864 107.697 152.686 107.473C152.431 107.15 152.261 106.718 152.169 105.931C152.074 105.121 152.072 104.064 152.072 102.54L152.072 99.6401C152.072 99.3731 152.072 98.7345 152.353 98.2624C152.526 97.9713 152.747 97.7282 152.975 97.6044C153.341 97.4049 153.762 97.2915 154.208 97.2915L155.249 97.328C155.629 97.3359 156.072 97.3239 156.5 97.2092C157.334 96.9857 157.986 96.3343 158.209 95.5003C158.324 95.0722 158.336 94.6287 158.328 94.2486L158.292 93.2082C158.292 92.7405 158.416 92.3334 158.633 91.955C158.76 91.7344 158.981 91.5325 159.286 91.3552C159.748 91.0863 160.301 91.0838 160.639 91.0823C160.977 91.0807 161.334 91.0796 161.632 91.0796C163.466 91.0796 164.133 91.0935 164.637 91.2709C165.509 91.5783 166.175 92.22 166.485 93.0053C166.563 93.202 166.618 93.4604 166.647 93.9083C166.677 94.365 166.678 94.948 166.678 95.7882V100.901C166.678 101.439 167.114 101.875 167.651 101.875C168.189 101.875 168.625 101.439 168.625 100.901V95.755C168.625 94.9559 168.625 94.3083 168.59 93.7797C168.554 93.2351 168.479 92.7494 168.296 92.2853C167.767 90.946 166.658 89.9117 165.282 89.4267C164.423 89.1241 162.951 89.1245 161.396 89.125C158.556 89.1247 156.87 89.1245 155.487 89.6115C153.267 90.3937 151.493 92.0565 150.65 94.1925C150.369 94.9045 150.244 95.6692 150.184 96.586C150.125 97.4867 150.125 98.5994 150.125 100.018V102.601C150.125 104.049 150.125 105.222 150.235 106.159C150.349 107.133 150.592 107.971 151.162 108.69C151.457 109.062 151.806 109.391 152.196 109.667C152.941 110.194 153.802 110.417 154.812 110.522Z" fill="#AA99EC"/>
<path d="M111.986 138V129.2H113.938V130.976H114.482L113.89 131.456C113.89 130.709 114.109 130.123 114.546 129.696C114.994 129.259 115.602 129.04 116.37 129.04C117.266 129.04 117.965 129.328 118.466 129.904C118.968 130.48 119.218 131.285 119.218 132.32V133.152H117.218V132.416C117.218 131.872 117.08 131.461 116.802 131.184C116.525 130.907 116.13 130.768 115.618 130.768C115.096 130.768 114.69 130.928 114.402 131.248C114.125 131.568 113.986 132.021 113.986 132.608V138H111.986ZM119.964 138L123.036 133.456L120.172 129.2H122.428L123.788 131.36C123.873 131.488 123.948 131.632 124.012 131.792C124.087 131.952 124.145 132.08 124.188 132.176C124.231 132.08 124.289 131.952 124.364 131.792C124.439 131.632 124.513 131.488 124.588 131.36L125.948 129.2H128.22L125.356 133.456L128.412 138H126.14L124.62 135.584C124.535 135.445 124.455 135.296 124.38 135.136C124.305 134.976 124.241 134.848 124.188 134.752C124.145 134.848 124.087 134.976 124.012 135.136C123.937 135.296 123.857 135.445 123.772 135.584L122.236 138H119.964ZM133.142 138.16C132.694 138.16 132.331 138.027 132.054 137.76C131.787 137.483 131.654 137.125 131.654 136.688C131.654 136.24 131.787 135.883 132.054 135.616C132.331 135.339 132.694 135.2 133.142 135.2C133.59 135.2 133.947 135.339 134.214 135.616C134.491 135.883 134.63 136.24 134.63 136.688C134.63 137.125 134.491 137.483 134.214 137.76C133.947 138.027 133.59 138.16 133.142 138.16ZM138.048 138V129.2H139.712V130.48H140.048L139.744 130.704C139.744 130.213 139.877 129.813 140.144 129.504C140.41 129.195 140.768 129.04 141.216 129.04C141.696 129.04 142.085 129.227 142.384 129.6C142.693 129.963 142.848 130.437 142.848 131.024L142.464 130.448H143.008L142.752 130.704C142.762 130.192 142.906 129.787 143.184 129.488C143.461 129.189 143.829 129.04 144.288 129.04C144.832 129.04 145.274 129.248 145.616 129.664C145.968 130.08 146.144 130.624 146.144 131.296V138H144.384V131.44C144.384 131.152 144.314 130.928 144.176 130.768C144.048 130.597 143.861 130.512 143.616 130.512C143.381 130.512 143.2 130.597 143.072 130.768C142.954 130.928 142.896 131.152 142.896 131.44V138H141.296V131.44C141.296 131.152 141.232 130.928 141.104 130.768C140.986 130.597 140.81 130.512 140.576 130.512C140.33 130.512 140.138 130.597 140 130.768C139.872 130.928 139.808 131.152 139.808 131.44V138H138.048ZM150.073 138.16C149.177 138.16 148.468 137.909 147.945 137.408C147.433 136.896 147.177 136.229 147.177 135.408C147.177 134.832 147.311 134.336 147.577 133.92C147.844 133.504 148.223 133.184 148.713 132.96C149.215 132.725 149.801 132.608 150.473 132.608H152.617V131.984C152.617 131.557 152.484 131.232 152.217 131.008C151.961 130.773 151.577 130.656 151.065 130.656C150.596 130.656 150.217 130.747 149.929 130.928C149.652 131.109 149.503 131.365 149.481 131.696H147.561C147.604 130.896 147.935 130.256 148.553 129.776C149.183 129.285 150.025 129.04 151.081 129.04C152.201 129.04 153.071 129.301 153.689 129.824C154.308 130.347 154.617 131.083 154.617 132.032V138H152.665V136.32H152.345L152.697 136.032C152.697 136.469 152.591 136.848 152.377 137.168C152.164 137.477 151.86 137.723 151.465 137.904C151.071 138.075 150.607 138.16 150.073 138.16ZM150.713 136.528C151.3 136.528 151.764 136.384 152.105 136.096C152.447 135.808 152.617 135.424 152.617 134.944V133.904H150.569C150.132 133.904 149.785 134.027 149.529 134.272C149.273 134.507 149.145 134.821 149.145 135.216C149.145 135.611 149.279 135.931 149.545 136.176C149.823 136.411 150.212 136.528 150.713 136.528ZM156.755 138V129.2H158.707V130.976H159.251L158.659 131.456C158.659 130.709 158.878 130.123 159.315 129.696C159.763 129.259 160.371 129.04 161.139 129.04C162.035 129.04 162.734 129.328 163.235 129.904C163.736 130.48 163.987 131.285 163.987 132.32V133.152H161.987V132.416C161.987 131.872 161.848 131.461 161.571 131.184C161.294 130.907 160.899 130.768 160.387 130.768C159.864 130.768 159.459 130.928 159.171 131.248C158.894 131.568 158.755 132.021 158.755 132.608V138H156.755ZM165.469 138V126.32H167.469V132.656H168.877L170.973 129.2H173.197L170.589 133.456L173.293 138H171.021L168.877 134.352H167.469V138H165.469ZM177.111 138.16C176.257 138.16 175.564 137.856 175.031 137.248C174.508 136.64 174.247 135.824 174.247 134.8V132.416C174.247 131.381 174.508 130.56 175.031 129.952C175.564 129.344 176.257 129.04 177.111 129.04C177.9 129.04 178.524 129.291 178.983 129.792C179.441 130.283 179.671 130.955 179.671 131.808L179.079 130.976H179.543L179.479 128.784V126.32H181.479V138H179.527V136.224H179.079L179.655 135.392C179.655 136.245 179.425 136.923 178.967 137.424C178.519 137.915 177.9 138.16 177.111 138.16ZM177.863 136.432C178.375 136.432 178.769 136.277 179.047 135.968C179.335 135.659 179.479 135.221 179.479 134.656V132.544C179.479 131.979 179.335 131.541 179.047 131.232C178.769 130.923 178.375 130.768 177.863 130.768C177.351 130.768 176.951 130.907 176.663 131.184C176.385 131.461 176.247 131.888 176.247 132.464V134.736C176.247 135.301 176.385 135.728 176.663 136.016C176.951 136.293 177.351 136.432 177.863 136.432ZM186.864 138.144C186.118 138.144 185.467 138 184.912 137.712C184.358 137.424 183.931 137.019 183.632 136.496C183.334 135.963 183.184 135.339 183.184 134.624V132.576C183.184 131.851 183.334 131.227 183.632 130.704C183.931 130.181 184.358 129.776 184.912 129.488C185.467 129.2 186.118 129.056 186.864 129.056C187.622 129.056 188.272 129.2 188.816 129.488C189.371 129.776 189.798 130.181 190.096 130.704C190.395 131.227 190.544 131.851 190.544 132.576V134.624C190.544 135.339 190.395 135.963 190.096 136.496C189.798 137.019 189.371 137.424 188.816 137.712C188.272 138 187.622 138.144 186.864 138.144ZM186.864 136.4C187.398 136.4 187.808 136.256 188.096 135.968C188.395 135.669 188.544 135.243 188.544 134.688V132.512C188.544 131.947 188.395 131.52 188.096 131.232C187.808 130.944 187.398 130.8 186.864 130.8C186.342 130.8 185.931 130.944 185.632 131.232C185.334 131.52 185.184 131.947 185.184 132.512V134.688C185.184 135.243 185.334 135.669 185.632 135.968C185.931 136.256 186.342 136.4 186.864 136.4ZM192.65 138L191.274 129.2H192.858L193.642 134.592C193.685 134.923 193.722 135.28 193.754 135.664C193.786 136.048 193.813 136.368 193.834 136.624C193.855 136.368 193.877 136.048 193.898 135.664C193.93 135.28 193.978 134.923 194.042 134.592L195.002 129.2H196.666L197.594 134.592C197.658 134.923 197.706 135.285 197.738 135.68C197.781 136.064 197.813 136.384 197.834 136.64C197.855 136.384 197.877 136.064 197.898 135.68C197.93 135.285 197.973 134.923 198.026 134.592L198.826 129.2H200.362L198.954 138H196.89L196.058 132.576C196.015 132.267 195.967 131.92 195.914 131.536C195.871 131.141 195.839 130.827 195.818 130.592C195.818 130.752 195.802 130.949 195.77 131.184C195.738 131.419 195.706 131.659 195.674 131.904C195.642 132.149 195.61 132.373 195.578 132.576L194.714 138H192.65ZM201.204 138V129.2H203.156V130.88H203.7L203.108 131.344C203.119 130.64 203.343 130.08 203.78 129.664C204.217 129.248 204.799 129.04 205.524 129.04C206.388 129.04 207.076 129.328 207.588 129.904C208.111 130.48 208.372 131.253 208.372 132.224V138H206.372V132.464C206.372 131.92 206.233 131.504 205.956 131.216C205.679 130.917 205.295 130.768 204.804 130.768C204.303 130.768 203.908 130.917 203.62 131.216C203.343 131.515 203.204 131.941 203.204 132.496V138H201.204Z" fill="#AA99EC"/>
</svg>
